X:89
%%vocalfont Baskerville10Pro 11
%%pagewidth 7.5in
%%score 1 2
T:Lady Lie Near Me
M:3/8
L:1/8
K:C
%%score 1 2
V:1 clef-treble
V:2 clef-bass octave=-1
V:1
(E/F/)GE&CC2|[B,D]EC|GGc&C2[CE]|[CFA]2[DG]|(E/F/)GE&CC2|
w:All* in the month of May, When all things blos-som, As* in my
V:2
CEC|xGE&G,2A,|E,2C,|F,/G,/A,B,|CEC|
V:1
[B,D]EC|GGc&C2[CE]|[FA]2[EG]&C3||c>d(e/d/)&E2[E^G]|[EAc][FA][EG]|ccd&G2[Ac]|
w:bed I lay, Sleep it grew loath-some. Up I rose,* and did walk O-ver yon
V:2
xG E&G,2A,|E,2C,|F,A,C||A2E|A,F,C,|E2F|
V:1
[Gce]2[FBd]|(c>d)e/d/&E2[E^G]|[EAc][FA][EG]|ccd&G2[Ac]|[ce]2[Bd]&G3||!f!eed&[EB]3|
w:mountains* Through* meadows* and through dales, Over rocks and foun-tains; I heard a
V:2
G2^G|A2E|A,F,C,|E2F|G3|^G3|
V:1
c>de&E2[Ec]|!p![DG][CE][CE]|[B,D]2C|!f![Ee][Ee][Ed]|[Ec]>[Ed][Ee]|!pp!GE[CE]|[B,D]2C||
w:voice to sing, Sweetheart,* come cheer me, Thou hast been long* away, Lady,* lie near me.
V:2
A2A,|(B,C)E,|(G,2C)|[B,E^G][B,EG][B,EG]|[A,EA]>[B,E^G][CEA]|[E=G]C[CG]|([G,F]2[CE])||

